X:1
T:Castile
T:A Major                    Jacob French, 1789
T:Transcribed from  The New American Melody, 1789.
T:William Billings, 1778                      88. 88. 88.
%%score [ 1 2 3 4 ]
L:1/8
Q:1/4=150
M:2/2
K:A
V:1 treble nm="Voice" snm="Tr."
V:2 treble nm="Voice" snm="C."
V:3 treble-8 nm="Tenor" snm="T."
V:4 bass nm="Bass" snm="B."
V:1
 z4 | %1
"_Come, let us sing unto the Lord,                                                            In this design one chorus raise,                                                                                                                  The   skies shall  e   –  cho    back  his praise." c4 c2 e2 | %2
 c2 A2 c2 e2 | e4 z4 | %4
"_And praise his name with one accord.                                         From east to west his praise proclaim," e4 e2 e2 | %5
 f2 f2 e2 ^d2 | e4 e4 | c2 c2 c2 e2 | f4 e4 | d8 | e4 e2 c2 | d2 B2 c2 A2 | B4 z4 | z8 | z8 | %15
 z4 c4 | AB cd ec dB | (c2 A2) B4 | c8 |] %19
V:2
"_Come, let us sing unto the Lord,                                                                In this design one chorus raise,                                                      From pole to pole extol his fame," E4 | %1
 E4 E4 | E2 E2 F2 G2 | %3
 A4"_And praise his name with one accord.                                                                                                                                                                         The  skies  shall  e  –  cho  back  his  praise." A4 | %4
 G4 A4 | F2 F2 G2 A2 | G4 A4 | A2 A2 A2 A2 | A4 A4 | B8 | z8 | z8 | z4 E4 | F2 F2 E2 E2 | %14
 ^D2 D2 E4- | E4 A4 | A2 AB cB BG | E4 E4 | E8 |] %19
V:3
 z4 | %1
"_Come, let us sing unto the Lord,                                                            In this design one chorus raise,                                                                                                                  The   skies shall  e   –  cho    back  his praise." A4 A2 c2 | %2
 e2 c2 A2 B2 | c4 z4 |"_And praise his name with one accord." B4 c2 c2 | d2 c2 B2 A2 | B4 c4 | %7
 e2 e2 e2 c2 | d4 e4 | f8 | z8 | z8 | z8 | z8 | z8 | z4 e4 | f2 e2 ce d2 | c4 B4 | A8 |] %19
V:4
"_Come, let us sing unto the Lord,                                                                  In this design one chorus raise,                                                    From pole to pole extol his fame," [A,,A,]4 | %1
 [A,,A,]4 [A,,A,]4 | [A,,A,]2 [A,,A,]2 [F,,F,]2 [E,,E,]2 | [A,,A,]4 [A,,A,]4 | %4
"_And praise His name with one accord.                                              From east to west his praise proclaim,                                             The  skies  shall  e   –   cho   back  his  praise." [E,,E,]4 [A,,A,]4 | %5
 [B,,B,]2 [A,,A,]2 [G,,G,]2 [F,,F,]2 | [E,,E,]4 [A,,A,]4 | [A,,A,]2 [A,,A,]2 [A,,A,]2 [A,,A,]2 | %8
 [D,D]4 [C,C]4 | [B,,B,]8 | [A,,A,]4 [A,,A,]2 [A,,A,]2 | [G,,G,]2 [G,,G,]2 [F,,F,]2 [F,,F,]2 | %12
 [E,,E,]4 A,,4 | D,2 D,2 C,2 C,2 | B,,2 B,,2 [E,,E,]4- | [E,,E,]4 [A,,A,]4 | %16
 [D,D]2 [C,C][B,,B,] [A,,A,]2 [G,,G,][A,,A,] | [A,,A,]4 [E,,E,]4 | A,,8 |] %19

